X:735
T:Reel 735
M:4/4
K:Gmaj
L:1/8
g>G (3GGG B>G (3GFG |A>F (3FGA e>A (3AGA |g>G (3GGG B>G (3GFG |A>F (3FED A2DF|G2fG gGGG (3BAG |ADFD  (3DED d2||gfgf ececdc|BGAF G2:||2gfge dcBA|Ggfa g2|ga|bgag fgdg| (3fga df e2dc| (3Bcd ef g>d (3Bcd ||efga gbba:||2c>A (3AGA e2dc|
